img/svg/circle1.svg

<svg width="136" height="80" viewBox="0 0 136 80" fill="none" xmlns="http://www.w3.org/2000/svg">
<circle cx="96" cy="40" r="40" fill="#CF2D1E"/>
<path d="M103.059 20C110.206 20 116 25.794 116 32.9412C116 40.0884 110.206 45.8824 103.059 45.8824C102.409 45.8824 101.882 46.4091 101.882 47.0588C101.882 47.6364 102.299 48.1167 102.847 48.2163L103.059 48.2353H116V60H103.059C95.9116 60 90.1177 54.206 90.1177 47.0588C90.1177 39.9116 95.9116 34.1176 103.059 34.1176C103.709 34.1176 104.235 33.5909 104.235 32.9412C104.235 32.3636 103.819 31.8833 103.27 31.7837L103.059 31.7647H88.9412C88.3637 31.7647 87.8833 32.1809 87.7837 32.7297L87.7647 32.9412V60H76V32.9412C76 25.9683 81.5148 20.2834 88.4207 20.0103L88.9412 20H103.059Z" fill="white"/>
<rect x="16" y="20" width="8" height="40" rx="4" fill="#CF2D1E"/>
<rect x="40" y="36" width="8" height="40" rx="4" transform="rotate(90 40 36)" fill="#CF2D1E"/>
</svg>

<svg width="136" height="80" fill="none" xmlns="http://www.w3.org/2000/svg"><circle cx="96" cy="40" r="40" fill="#CF2D1E"/><path d="M103.059 20C110.206 20 116 25.794 116 32.941c0 7.147-5.794 12.941-12.941 12.941a1.177 1.177 0 00-.212 2.334l.212.02H116V60h-12.941c-7.147 0-12.941-5.794-12.941-12.941 0-7.147 5.794-12.941 12.941-12.941a1.176 1.176 0 00.211-2.334l-.211-.02H88.941c-.577 0-1.058.417-1.157.966l-.02.211V60H76V32.941c0-6.973 5.515-12.658 12.42-12.93l.521-.011h14.118z" fill="#fff"/><rect x="16" y="20" width="8" height="40" rx="4" fill="#CF2D1E"/><rect x="40" y="36" width="8" height="40" rx="4" transform="rotate(90 40 36)" fill="#CF2D1E"/></svg>
